packages/core/src/svgs/tokens/branded/XPRT.svg

<svg width="24" height="24" viewBox="0 0 24 24" fill="none" xmlns="http://www.w3.org/2000/svg">
<path fill-rule="evenodd" clip-rule="evenodd" d="M5.75 5.75V22H9.49997V16.3749H12.9062C15.8562 16.3749 18.2499 13.9999 18.2499 11.0625C18.2499 8.12499 15.8562 5.75 12.9062 5.75H5.75ZM9.49997 13.1312H12.1438C12.4162 13.1321 12.6861 13.0791 12.9383 12.9757C13.1903 12.8722 13.4195 12.7199 13.6127 12.5279C13.8061 12.3358 13.9595 12.1074 14.0647 11.856C14.1697 11.6046 14.2241 11.335 14.225 11.0625C14.225 9.91878 13.2937 8.99373 12.1438 8.99373H9.49997V13.1312Z" fill="white"/>
<path d="M5.75 2H18.2499V4.49998H5.75V2Z" fill="#E80813"/>
</svg>

<svg xmlns="http://www.w3.org/2000/svg" width="24" height="24" fill="none" viewBox="0 0 24 24">
    <path fill="#fff" fill-rule="evenodd" d="M5.75 5.75V22H9.5v-5.625h3.406c2.95 0 5.344-2.375 5.344-5.312S15.856 5.75 12.906 5.75zm3.75 7.381h2.644a2.076 2.076 0 0 0 2.081-2.068 2.074 2.074 0 0 0-2.081-2.07H9.5z" clip-rule="evenodd"/>
    <path fill="#E80813" d="M5.75 2h12.5v2.5H5.75z"/>
</svg>
